static/raedah-bg.svg

<svg width="580" height="1018" viewBox="0 0 580 1018" fill="none" xmlns="http://www.w3.org/2000/svg">
<path d="M291.607 513.424C291.607 511.989 291.607 510.555 291.607 509.06C291.607 507.565 291.607 506.131 291.607 504.696L292.141 499.255C294.491 481.901 302.995 465.99 316.081 454.462C329.168 442.934 345.952 436.569 363.334 436.542H364.461C378.644 436.318 392.445 431.876 404.13 423.772C415.815 415.669 424.863 404.267 430.137 390.998C435.412 377.729 436.677 363.185 433.774 349.194C430.872 335.202 423.93 322.387 413.823 312.359C403.715 302.33 390.891 295.536 376.964 292.828C363.036 290.121 348.624 291.622 335.54 297.142C322.456 302.663 311.283 311.957 303.424 323.856C295.565 335.756 291.372 349.731 291.37 364.024C290.832 382.905 283.011 400.83 269.568 413.993C256.126 427.156 238.12 434.519 219.377 434.519C200.633 434.519 182.627 427.156 169.185 413.993C155.742 400.83 147.921 382.905 147.383 364.024C146.845 345.144 139.025 327.219 125.582 314.056C112.139 300.893 94.1338 293.53 75.39 293.53C56.6462 293.53 38.6408 300.893 25.1982 314.056C11.7555 327.219 3.9346 345.144 3.3967 364.024C3.3967 383.257 -4.18515 401.703 -17.681 415.302C-31.1768 428.902 -49.481 436.542 -68.5669 436.542C-87.6529 436.542 -105.957 428.902 -119.453 415.302C-132.949 401.703 -140.531 383.257 -140.531 364.024C-140.509 349.711 -144.687 335.711 -152.541 323.784C-160.394 311.858 -171.572 302.538 -184.668 296.996C-197.765 291.454 -212.195 289.938 -226.143 292.639C-240.092 295.34 -252.937 302.137 -263.063 312.175C-273.189 322.213 -280.143 335.043 -283.051 349.054C-285.959 363.064 -284.691 377.628 -279.407 390.914C-274.122 404.2 -265.058 415.615 -253.352 423.723C-241.647 431.831 -227.824 436.27 -213.621 436.482H-212.494C-195.109 436.497 -178.318 442.858 -165.229 454.388C-152.14 465.918 -143.64 481.836 -141.302 499.196L-140.768 504.576C-140.768 506.011 -140.768 507.446 -140.768 508.881C-140.768 509.598 -140.768 510.256 -140.768 510.973V509C-140.768 510.495 -140.768 511.93 -140.768 513.364L-141.242 518.805C-143.604 536.154 -152.112 552.058 -165.195 563.583C-178.279 575.109 -195.057 581.478 -212.435 581.518H-213.562C-227.745 581.754 -241.542 586.208 -253.221 594.32C-264.899 602.433 -273.938 613.843 -279.201 627.117C-284.465 640.39 -285.718 654.935 -282.804 668.924C-279.89 682.913 -272.938 695.722 -262.823 705.742C-252.707 715.762 -239.878 722.546 -225.948 725.242C-212.018 727.938 -197.608 726.425 -184.528 720.894C-171.449 715.363 -160.283 706.06 -152.434 694.154C-144.585 682.248 -140.402 668.27 -140.412 653.976C-140.412 644.453 -138.551 635.023 -134.934 626.224C-131.318 617.426 -126.017 609.432 -119.334 602.698C-112.652 595.964 -104.719 590.623 -95.9875 586.978C-87.2565 583.334 -77.8987 581.458 -68.4483 581.458C-58.9979 581.458 -49.64 583.334 -40.909 586.978C-32.1779 590.623 -24.2447 595.964 -17.5623 602.698C-10.8798 609.432 -5.57907 617.426 -1.96255 626.224C1.65396 635.023 3.51538 644.453 3.51538 653.976C3.50543 668.284 7.6926 682.276 15.5508 694.193C23.4089 706.111 34.5874 715.421 47.6812 720.956C60.7751 726.49 75.2002 728 89.1435 725.298C103.087 722.595 115.926 715.799 126.048 705.765C136.17 695.73 143.123 682.905 146.033 668.9C148.943 654.896 147.68 640.337 142.403 627.053C137.126 613.77 128.07 602.355 116.374 594.242C104.678 586.13 90.8627 581.682 76.6656 581.458H75.5384C58.1534 581.444 41.3622 575.083 28.2733 563.553C15.1843 552.023 6.68402 536.105 4.34595 518.745L3.81201 513.305C3.81201 511.87 3.81201 510.435 3.81201 508.94V511.033C3.81201 510.315 3.81201 509.598 3.81201 508.94C3.81201 507.506 3.81201 506.011 3.81201 504.576L4.34595 499.196C6.7774 481.913 15.3181 466.097 28.3977 454.653C41.4773 443.21 58.2168 436.909 75.5384 436.909C92.8599 436.909 109.599 443.21 122.679 454.653C135.759 466.097 144.299 481.913 146.731 499.196L147.205 504.576C147.205 506.011 147.205 507.446 147.205 508.94C147.205 508.94 147.205 509.478 147.205 509.777C147.205 511.93 147.205 514.142 147.205 516.294C147.205 517.43 147.561 518.566 147.739 519.642C147.917 520.718 147.739 522.212 148.273 523.408C148.807 524.604 148.985 526.098 149.282 527.414C149.578 528.729 149.756 529.386 150.053 530.343C150.35 531.299 151.062 533.213 151.596 534.588C152.13 535.963 152.129 536.202 152.426 536.979C152.723 537.756 153.85 539.968 154.562 541.523C154.562 542.061 155.096 542.658 155.393 543.196C156.282 544.811 157.232 546.365 158.181 547.919C158.181 548.338 158.655 548.756 158.952 549.115C160.079 550.789 161.266 552.463 162.512 554.017L162.986 554.675C164.351 556.349 165.834 557.963 167.317 559.517C180.523 573.067 198.486 580.841 217.33 581.159H218.635C228.09 581.151 237.455 583.021 246.193 586.662C254.93 590.303 262.871 595.643 269.559 602.378C276.248 609.113 281.554 617.11 285.174 625.912C288.795 634.714 290.658 644.149 290.658 653.677C290.636 667.99 294.815 681.991 302.668 693.917C310.522 705.844 321.7 715.164 334.796 720.706C347.892 726.247 362.322 727.763 376.271 725.062C390.22 722.361 403.065 715.565 413.19 705.527C423.316 695.489 430.27 682.658 433.178 668.648C436.086 654.638 434.818 640.074 429.534 626.788C424.25 613.502 415.185 602.087 403.48 593.979C391.774 585.871 377.951 581.431 363.749 581.219H362.622C345.24 581.192 328.456 574.827 315.369 563.299C302.283 551.771 293.779 535.86 291.429 518.506L291.607 513.424ZM-140.471 506.968C-140.471 507.565 -140.471 508.223 -140.471 508.821V506.968ZM3.45605 508.94C3.48468 508.602 3.48468 508.262 3.45605 507.924V506.968V508.94ZM291.311 511.152C291.311 510.495 291.311 509.897 291.311 509.239V511.152ZM291.311 509.06C291.311 508.402 291.311 507.745 291.311 507.087V509.06ZM147.502 506.968C147.471 507.465 147.471 507.964 147.502 508.462C147.502 508.462 147.502 508.462 147.502 508.94V506.968Z" fill="#4B82BC" fill-opacity="0.1"/>
<path d="M-17.1931 269.865C-7.09979 259.676 -0.230042 246.702 2.548 232.58C5.32608 218.458 3.88776 203.824 -1.58514 190.526C-7.05801 177.227 -16.3198 165.862 -28.2003 157.867C-40.0807 149.871 -54.0465 145.604 -68.3329 145.604C-82.6194 145.604 -96.5853 149.871 -108.466 157.867C-120.346 165.862 -129.608 177.227 -135.081 190.526C-140.554 203.824 -141.992 218.458 -139.214 232.58C-136.436 246.702 -129.566 259.676 -119.473 269.865C-105.913 283.515 -87.5295 291.182 -68.3626 291.182C-49.1957 291.182 -30.8127 283.515 -17.2524 269.865" fill="#4B82BC" fill-opacity="0.1"/>
<path d="M126.563 124.291C136.665 114.106 143.543 101.131 146.328 87.0073C149.113 72.8833 147.679 58.2445 142.209 44.9414C136.739 31.6383 127.477 20.2683 115.595 12.2689C103.712 4.26957 89.7431 0 75.4531 0C61.1631 0 47.194 4.26957 35.3117 12.2689C23.4295 20.2683 14.1677 31.6383 8.69724 44.9414C3.22684 58.2445 1.79346 72.8833 4.57834 87.0073C7.36319 101.131 14.2412 114.106 24.3429 124.291C31.0534 131.057 39.0211 136.424 47.7908 140.086C56.5605 143.748 65.9603 145.633 75.4531 145.633C84.9459 145.633 94.3456 143.748 103.115 140.086C111.885 136.424 119.853 131.057 126.563 124.291Z" fill="#4B82BC" fill-opacity="0.1"/>
<path d="M169.577 167.096C159.455 177.285 152.56 190.27 149.763 204.409C146.966 218.548 148.394 233.205 153.865 246.526C159.337 259.847 168.606 271.233 180.501 279.244C192.395 287.256 206.381 291.532 220.687 291.532C234.994 291.532 248.98 287.256 260.874 279.244C272.769 271.233 282.038 259.847 287.509 246.526C292.981 233.205 294.409 218.548 291.612 204.409C288.815 190.27 281.919 177.285 271.798 167.096C265.087 160.33 257.119 154.963 248.35 151.301C239.58 147.639 230.18 145.754 220.687 145.754C211.195 145.754 201.795 147.639 193.025 151.301C184.255 154.963 176.288 160.33 169.577 167.096Z" fill="#4B82BC" fill-opacity="0.1"/>
<path d="M456.541 456.031C446.427 466.223 439.54 479.209 436.75 493.345C433.96 507.482 435.393 522.134 440.867 535.451C446.34 548.767 455.61 560.148 467.503 568.155C479.395 576.163 493.377 580.437 507.681 580.437C521.984 580.437 535.966 576.163 547.858 568.155C559.751 560.148 569.021 548.767 574.494 535.451C579.968 522.134 581.401 507.482 578.611 493.345C575.821 479.209 568.934 466.223 558.82 456.031C545.25 442.378 526.857 434.709 507.681 434.709C488.504 434.709 470.111 442.378 456.541 456.031Z" fill="#4B82BC" fill-opacity="0.1"/>
<path d="M169.223 748.135C159.121 758.32 152.243 771.295 149.459 785.419C146.674 799.543 148.107 814.182 153.578 827.485C159.048 840.788 168.31 852.158 180.192 860.157C192.074 868.156 206.043 872.426 220.333 872.426C234.623 872.426 248.592 868.156 260.475 860.157C272.357 852.158 281.619 840.788 287.089 827.485C292.56 814.182 293.993 799.543 291.208 785.419C288.423 771.295 281.545 758.32 271.443 748.135C264.737 741.362 256.771 735.988 248 732.322C239.23 728.655 229.828 726.768 220.333 726.768C210.838 726.768 201.437 728.655 192.666 732.322C183.896 735.988 175.93 741.362 169.223 748.135Z" fill="#4B82BC" fill-opacity="0.1"/>
<path d="M24.3429 893.709C14.2412 903.894 7.36319 916.869 4.57834 930.993C1.79346 945.117 3.22684 959.756 8.69724 973.059C14.1677 986.362 23.4295 997.732 35.3117 1005.73C47.194 1013.73 61.1631 1018 75.4531 1018C89.7431 1018 103.712 1013.73 115.595 1005.73C127.477 997.732 136.739 986.362 142.209 973.059C147.679 959.756 149.113 945.117 146.328 930.993C143.543 916.869 136.665 903.894 126.563 893.709C119.853 886.943 111.885 881.576 103.115 877.914C94.3456 874.252 84.9459 872.367 75.4531 872.367C65.9603 872.367 56.5605 874.252 47.7908 877.914C39.0211 881.576 31.0534 886.943 24.3429 893.709Z" fill="#4B82BC" fill-opacity="0.1"/>
<path d="M-305.63 559.039C-295.528 548.854 -288.65 535.879 -285.865 521.755C-283.08 507.631 -284.513 492.992 -289.984 479.689C-295.454 466.386 -304.716 455.016 -316.598 447.017C-328.481 439.018 -342.45 434.748 -356.74 434.748C-371.03 434.748 -384.999 439.018 -396.881 447.017C-408.763 455.016 -418.025 466.386 -423.496 479.689C-428.966 492.992 -430.399 507.631 -427.615 521.755C-424.83 535.879 -417.952 548.854 -407.85 559.039C-401.139 565.805 -393.172 571.172 -384.402 574.834C-375.632 578.496 -366.233 580.381 -356.74 580.381C-347.247 580.381 -337.847 578.496 -329.077 574.834C-320.308 571.172 -312.34 565.805 -305.63 559.039Z" fill="#4B82BC" fill-opacity="0.1"/>
<path d="M-119.46 748.135C-129.562 758.32 -136.44 771.295 -139.225 785.419C-142.009 799.543 -140.576 814.182 -135.106 827.485C-129.635 840.788 -120.373 852.158 -108.491 860.157C-96.6089 868.156 -82.6397 872.426 -68.3497 872.426C-54.0598 872.426 -40.0906 868.156 -28.2083 860.157C-16.326 852.158 -7.06424 840.788 -1.59381 827.485C3.87659 814.182 5.30997 799.543 2.52512 785.419C-0.259766 771.295 -7.13782 758.32 -17.2395 748.135C-23.95 741.369 -31.9178 736.002 -40.6874 732.34C-49.4572 728.678 -58.8569 726.793 -68.3497 726.793C-77.8426 726.793 -87.2423 728.678 -96.012 732.34C-104.782 736.002 -112.749 741.369 -119.46 748.135Z" fill="#4B82BC" fill-opacity="0.1"/>
</svg>

<svg width="580" height="1018" fill="none" xmlns="http://www.w3.org/2000/svg"><path d="M291.607 513.424v-8.728l.534-5.441c2.35-17.354 10.854-33.265 23.94-44.793 13.087-11.528 29.871-17.893 47.253-17.92h1.127a71.58 71.58 0 0 0 39.669-12.77c11.685-8.103 20.733-19.505 26.007-32.774a73.031 73.031 0 0 0 3.637-41.804 72.676 72.676 0 0 0-19.951-36.835 71.793 71.793 0 0 0-36.859-19.531 71.463 71.463 0 0 0-41.424 4.314c-13.084 5.521-24.257 14.815-32.116 26.714a72.92 72.92 0 0 0-12.054 40.168c-.538 18.881-8.359 36.806-21.802 49.969-13.442 13.163-31.448 20.526-50.191 20.526-18.744 0-36.75-7.363-50.192-20.526-13.443-13.163-21.264-31.088-21.802-49.969-.538-18.88-8.358-36.805-21.801-49.968-13.443-13.163-31.448-20.526-50.192-20.526s-36.75 7.363-50.192 20.526c-13.443 13.163-21.263 31.088-21.801 49.968 0 19.233-7.582 37.679-21.078 51.278-13.496 13.6-31.8 21.24-50.886 21.24-19.086 0-37.39-7.64-50.886-21.24-13.496-13.599-21.078-32.045-21.078-51.278a72.974 72.974 0 0 0-12.01-40.24c-7.853-11.926-19.031-21.246-32.127-26.788a71.51 71.51 0 0 0-41.475-4.357 71.849 71.849 0 0 0-36.92 19.536 72.734 72.734 0 0 0-19.988 36.879 73.103 73.103 0 0 0 3.644 41.86c5.285 13.286 14.349 24.701 26.055 32.809a71.641 71.641 0 0 0 39.731 12.759h1.127c17.385.015 34.176 6.376 47.265 17.906 13.089 11.53 21.589 27.448 23.927 44.808l.534 5.38v6.397V509v4.364l-.474 5.441c-2.362 17.349-10.87 33.253-23.953 44.778-13.084 11.526-29.862 17.895-47.24 17.935h-1.127a71.598 71.598 0 0 0-39.659 12.802c-11.678 8.113-20.717 19.523-25.98 32.797a73.036 73.036 0 0 0-3.603 41.807 72.683 72.683 0 0 0 19.981 36.818 71.789 71.789 0 0 0 36.875 19.5 71.456 71.456 0 0 0 41.42-4.348c13.079-5.531 24.245-14.834 32.094-26.74a72.917 72.917 0 0 0 12.022-40.178 73 73 0 0 1 5.478-27.752 72.543 72.543 0 0 1 15.6-23.526 71.928 71.928 0 0 1 23.347-15.72 71.493 71.493 0 0 1 27.539-5.52c9.45 0 18.808 1.876 27.539 5.52a71.937 71.937 0 0 1 23.347 15.72 72.559 72.559 0 0 1 15.6 23.526 73.01 73.01 0 0 1 5.477 27.752 72.975 72.975 0 0 0 12.036 40.217 72.153 72.153 0 0 0 32.13 26.763 71.522 71.522 0 0 0 41.463 4.342 71.848 71.848 0 0 0 36.904-19.533 72.744 72.744 0 0 0 19.985-36.865 73.1 73.1 0 0 0-3.63-41.847c-5.277-13.283-14.333-24.698-26.029-32.811a71.65 71.65 0 0 0-39.708-12.784h-1.128c-17.385-.014-34.176-6.375-47.265-17.905-13.089-11.53-21.589-27.448-23.927-44.808l-.534-5.44v-4.365 2.093-6.457l.534-5.38c2.431-17.283 10.972-33.099 24.052-44.543 13.08-11.443 29.819-17.744 47.14-17.744 17.322 0 34.061 6.301 47.141 17.744 13.08 11.444 21.62 27.26 24.052 44.543l.474 5.38v11.718c0 1.136.356 2.272.534 3.348.178 1.076 0 2.57.534 3.766.534 1.196.712 2.69 1.009 4.006.296 1.315.474 1.972.771 2.929.297.956 1.009 2.87 1.543 4.245s.533 1.614.83 2.391c.297.777 1.424 2.989 2.136 4.544 0 .538.534 1.135.831 1.673.889 1.615 1.839 3.169 2.788 4.723 0 .419.474.837.771 1.196 1.127 1.674 2.314 3.348 3.56 4.902l.474.658c1.365 1.674 2.848 3.288 4.331 4.842 13.206 13.55 31.169 21.324 50.013 21.642h1.305a71.485 71.485 0 0 1 27.558 5.503 71.925 71.925 0 0 1 23.366 15.716 72.555 72.555 0 0 1 15.615 23.534 72.988 72.988 0 0 1 5.484 27.765 72.98 72.98 0 0 0 12.01 40.24c7.854 11.927 19.032 21.247 32.128 26.789a71.517 71.517 0 0 0 41.475 4.356 71.84 71.84 0 0 0 36.919-19.535 72.738 72.738 0 0 0 19.988-36.879 73.103 73.103 0 0 0-3.644-41.86c-5.284-13.286-14.349-24.701-26.054-32.809a71.647 71.647 0 0 0-39.731-12.76h-1.127c-17.382-.027-34.166-6.392-47.253-17.92-13.086-11.528-21.59-27.439-23.94-44.793l.178-5.082zm-432.078-6.456v1.853-1.853zM3.456 508.94a6.02 6.02 0 0 0 0-1.016v-.956 1.972zm287.855 2.212v-1.913 1.913zm0-2.092v-1.973 1.973zm-143.809-2.092c-.031.497-.031.996 0 1.494v.478-1.972z" fill="#4B82BC" fill-opacity=".1"/><path d="M-17.193 269.865A72.992 72.992 0 0 0 2.548 232.58a73.336 73.336 0 0 0-4.133-42.054c-5.473-13.299-14.735-24.664-26.615-32.659a71.865 71.865 0 0 0-40.133-12.263 71.867 71.867 0 0 0-40.133 12.263c-11.88 7.995-21.142 19.36-26.615 32.659a73.335 73.335 0 0 0-4.133 42.054 72.994 72.994 0 0 0 19.741 37.285c13.56 13.65 31.944 21.317 51.11 21.317 19.167 0 37.55-7.667 51.11-21.317M126.563 124.291a72.99 72.99 0 0 0 19.765-37.284 73.34 73.34 0 0 0-4.119-42.066c-5.47-13.303-14.732-24.673-26.614-32.672A71.872 71.872 0 0 0 75.453 0c-14.29 0-28.259 4.27-40.141 12.269-11.882 8-21.144 19.37-26.615 32.672a73.337 73.337 0 0 0-4.119 42.066 72.991 72.991 0 0 0 19.765 37.284 72.226 72.226 0 0 0 23.448 15.795 71.781 71.781 0 0 0 27.662 5.547 71.778 71.778 0 0 0 27.662-5.547 72.218 72.218 0 0 0 23.448-15.795zM169.577 167.096a73.052 73.052 0 0 0-19.814 37.313 73.4 73.4 0 0 0 4.102 42.117c5.472 13.321 14.741 24.707 26.636 32.718a71.92 71.92 0 0 0 40.186 12.288 71.92 71.92 0 0 0 40.187-12.288c11.895-8.011 21.164-19.397 26.635-32.718a73.392 73.392 0 0 0 4.103-42.117 73.06 73.06 0 0 0-19.814-37.313 72.24 72.24 0 0 0-23.448-15.795 71.785 71.785 0 0 0-27.663-5.547 71.784 71.784 0 0 0-27.662 5.547 72.228 72.228 0 0 0-23.448 15.795zM456.541 456.031a73.05 73.05 0 0 0-19.791 37.314 73.4 73.4 0 0 0 4.117 42.106c5.473 13.316 14.743 24.697 26.636 32.704a71.92 71.92 0 0 0 40.178 12.282 71.92 71.92 0 0 0 40.177-12.282c11.893-8.007 21.163-19.388 26.636-32.704a73.4 73.4 0 0 0 4.117-42.106 73.05 73.05 0 0 0-19.791-37.314c-13.57-13.653-31.963-21.322-51.139-21.322-19.177 0-37.57 7.669-51.14 21.322zM169.223 748.135a72.982 72.982 0 0 0-19.764 37.284 73.332 73.332 0 0 0 4.119 42.066c5.47 13.303 14.732 24.673 26.614 32.672a71.87 71.87 0 0 0 40.141 12.269c14.29 0 28.259-4.27 40.142-12.269 11.882-7.999 21.144-19.369 26.614-32.672a73.332 73.332 0 0 0 4.119-42.066 72.99 72.99 0 0 0-19.765-37.284A72.148 72.148 0 0 0 248 732.322a71.712 71.712 0 0 0-27.667-5.554 71.716 71.716 0 0 0-27.667 5.554 72.169 72.169 0 0 0-23.443 15.813zM24.343 893.709a72.99 72.99 0 0 0-19.765 37.284 73.338 73.338 0 0 0 4.12 42.066c5.47 13.303 14.732 24.673 26.614 32.671A71.864 71.864 0 0 0 75.453 1018c14.29 0 28.259-4.27 40.142-12.27 11.882-7.998 21.144-19.368 26.614-32.671a73.34 73.34 0 0 0 4.119-42.066 72.99 72.99 0 0 0-19.765-37.284 72.218 72.218 0 0 0-23.448-15.795 71.778 71.778 0 0 0-27.662-5.547 71.781 71.781 0 0 0-27.662 5.547 72.226 72.226 0 0 0-23.448 15.795zM-305.63 559.039a72.99 72.99 0 0 0 19.765-37.284 73.332 73.332 0 0 0-4.119-42.066c-5.47-13.303-14.732-24.673-26.614-32.672a71.875 71.875 0 0 0-40.142-12.269 71.87 71.87 0 0 0-40.141 12.269c-11.882 7.999-21.144 19.369-26.615 32.672a73.348 73.348 0 0 0-4.119 42.066 72.99 72.99 0 0 0 19.765 37.284 72.228 72.228 0 0 0 23.448 15.795 71.78 71.78 0 0 0 27.662 5.547 71.785 71.785 0 0 0 27.663-5.547 72.224 72.224 0 0 0 23.447-15.795zM-119.46 748.135a72.99 72.99 0 0 0-19.765 37.284 73.348 73.348 0 0 0 4.119 42.066c5.471 13.303 14.733 24.673 26.615 32.672a71.87 71.87 0 0 0 40.141 12.269c14.29 0 28.26-4.27 40.142-12.269 11.882-7.999 21.144-19.369 26.614-32.672a73.338 73.338 0 0 0 4.12-42.066 72.991 72.991 0 0 0-19.766-37.284 72.227 72.227 0 0 0-23.447-15.795 71.781 71.781 0 0 0-27.663-5.547 71.78 71.78 0 0 0-27.662 5.547 72.228 72.228 0 0 0-23.448 15.795z" fill="#4B82BC" fill-opacity=".1"/></svg>
